X:48
T:Jigs simple chords 111
M:3/4
L:1/8
K:C
c/d/[eA,CE] AA c2 | d[eA,CE] ag e2 | d[eA,CE] AA c2 | d[BG,B,D] GG Gc | d[eA,CE] AA c2 |
d[eA,CE] ag e2 | d[eF,A,C] AA BG | G2<[A2A,2C2E2] A2 | c/d/[eA,CE] AA c2 |
d[eA,CE] ag e2 | d[eA,CE] AA c2 | d[BG,B,D] GG Gc | d[eA,CE] AA c2 |
d[eA,CE] ag e2 | d[eF,A,C] AA BG | G2<[A2A,2C2E2] A3 |[EA,CE] AA Ac |
c[GG,B,D] BB Be | e[EA,CE] AA AB | c[BG,B,D] GG2< G2 |[EA,CE] AA Ac |
c[GG,B,D] BB Be | e[cF,A,C] AA BG | G2<[A2A,2C2E2] A3 |[EA,CE] AA Ac |
c[GG,B,D] BB Be | e[EA,CE] AA AB | c[BG,B,D] GG2< G2 |[EA,CE] AA Ac |
c[GG,B,D] BB Be | e[cF,A,C] AA BG | G2<[A2A,2C2E2] A3 |[E/A/][G/B/] [AA,CEA,CEc][Ec] [Ec][A2e2] |
[BG] [cA,CEA][ec] [dB][c2A2] |[BG] [AA,CEc][Ec] [Ec][A2e2] |[BG] [dA,CEG][Bd] [Bd][dB] | [Ae][BG] [AA,CEc][Ec] [Ec][A2e2] |
[BG] [cA,CEA][ec] [dB][c2A2] |[BG] [AA,CEc][Ec] [Ec][Gd] | [DB][D2B2]< [E2A,2C2E2c2][E2c2] |[E/A/][G/B/] [AA,CEc][Ec] [Ec][A2e2] |
[BG] [cA,CEA][ec] [dB][c2A2] |[BG] [AA,CEc][Ec] [Ec][A2e2] |[BG] [dA,CEG][Bd] [Bd][dB] | [Ae][BG] [AA,CEc][Ec] [Ec][A2e2] |
[BG] [cA,CEA][ec] [dB][c2A2] |[BG] [AA,CEc][Ec] [Ec][Gd] | [DB][D2B2]< [E2A,2C2E2c2][E2c2] |[AA] [AA,CEc][ce] [ce][ce] |
[eA][eA] [BA,CEd][dG] [dG][dG] | [gB][gB] [AA,CEc][ce] [ce][dF] | [eG][fA] [gA,CEB][Bd] [B2d2]<[B2d2] | [AA,CEc][ce] [ce][ce] |
[FA][FA] [BA,CEd][dG] [dG][dG] | [BB][BB] [AA,CEF][Fc] [Fc][Gd] | [DB][D2B2]< [E2A,2C2E2c2][E2c2] |[AA] [AA,CEc][ce] [ce][ce] |
[eA][eA] [BA,CEd][dG] [dG][dG] | [gB][gB] [AA,CEc][ce] [ce][dF] | [eG][fA] [gA,CEB][Bd] [B2d2]<[B2d2] | [AA,CEc][ce] [ce][ce] |
[FA][FA] [BA,CEd][dG] [dG][dG] | [BB][BB] [AA,CEF][Fc] [Fc][Gd] | [DB][D2B2]< [E2A,2C2E2c2][E2c2] |


